src/img/add_circle_h.svg

<svg width="35" height="35" viewBox="0 0 35 35" fill="none" xmlns="http://www.w3.org/2000/svg">
<g opacity="0.8">
<mask id="mask0_2241_415" style="mask-type:alpha" maskUnits="userSpaceOnUse" x="0" y="0" width="35" height="35">
<rect width="35" height="35" fill="#D9D9D9"/>
</mask>
<g mask="url(#mask0_2241_415)">
<path d="M16.3578 24.7918H18.7881V18.8126H24.7917V16.3819H18.7881V10.2084H16.3578V16.3819H10.2083V18.8126H16.3578V24.7918ZM17.5066 32.0834C15.4933 32.0834 13.6015 31.7006 11.8311 30.935C10.0607 30.1694 8.51508 29.1263 7.19432 27.8058C5.8738 26.485 4.83073 24.9388 4.0651 23.1672C3.29948 21.3955 2.91666 19.5025 2.91666 17.4881C2.91666 15.4736 3.29948 13.5804 4.0651 11.8086C4.83073 10.0369 5.8738 8.49487 7.19432 7.18237C8.51508 5.86987 10.0613 4.83081 11.8329 4.06519C13.6045 3.29956 15.4976 2.91675 17.512 2.91675C19.5265 2.91675 21.4196 3.29956 23.1915 4.06519C24.9631 4.83081 26.5052 5.86987 27.8177 7.18237C29.1302 8.49487 30.1693 10.0383 30.9349 11.8126C31.7005 13.5869 32.0833 15.4805 32.0833 17.4935C32.0833 19.5067 31.7005 21.3986 30.9349 23.169C30.1693 24.9394 29.1302 26.4834 27.8177 27.801C26.5052 29.1186 24.9618 30.1618 23.1875 30.9306C21.4132 31.6991 19.5195 32.0834 17.5066 32.0834ZM17.512 29.6527C20.8905 29.6527 23.7586 28.4699 26.1162 26.1043C28.4738 23.7386 29.6527 20.8665 29.6527 17.4881C29.6527 14.1096 28.4754 11.2415 26.1209 8.88388C23.7662 6.52624 20.8926 5.34742 17.5 5.34742C14.1295 5.34742 11.2615 6.52466 8.89583 8.87914C6.53017 11.2339 5.34734 14.1075 5.34734 17.5001C5.34734 20.8705 6.53017 23.7386 8.89583 26.1043C11.2615 28.4699 14.1336 29.6527 17.512 29.6527Z" fill="#1C1B1F"/>
</g>
</g>
</svg>

<?xml version="1.0" encoding="utf-8"?>
<!-- Generator: Adobe Illustrator 27.0.0, SVG Export Plug-In . SVG Version: 6.00 Build 0)  -->
<svg version="1.1" id="圖層_1" xmlns="http://www.w3.org/2000/svg" xmlns:xlink="http://www.w3.org/1999/xlink" x="0px" y="0px"
	 viewBox="0 0 35 35" style="enable-background:new 0 0 35 35;" xml:space="preserve">
<style type="text/css">
	.st0{fill:#D9D9D9;filter:url(#Adobe_OpacityMaskFilter);}
	.st1{mask:url(#mask0_2241_415_00000031189491851804378320000017794232888947910016_);}
	.st2{fill:#1C1B1F;}
</style>
<g>
	<defs>
		<filter id="Adobe_OpacityMaskFilter" filterUnits="userSpaceOnUse" x="2.9" y="2.9" width="29.2" height="29.2">
			<feColorMatrix  type="matrix" values="1 0 0 0 0  0 1 0 0 0  0 0 1 0 0  0 0 0 1 0"/>
		</filter>
	</defs>
	
		<mask maskUnits="userSpaceOnUse" x="2.9" y="2.9" width="29.2" height="29.2" id="mask0_2241_415_00000031189491851804378320000017794232888947910016_">
		<rect class="st0" width="35" height="35"/>
	</mask>
	<g class="st1">
		<path class="st2" d="M16.4,24.8h2.4v-6h6v-2.4h-6v-6.2h-2.4v6.2h-6.1v2.4h6.1V24.8z M17.5,32.1c-2,0-3.9-0.4-5.7-1.1
			s-3.3-1.8-4.6-3.1c-1.3-1.3-2.4-2.9-3.1-4.6c-0.8-1.8-1.1-3.7-1.1-5.7c0-2,0.4-3.9,1.1-5.7C4.8,10,5.9,8.5,7.2,7.2
			c1.3-1.3,2.9-2.4,4.6-3.1c1.8-0.8,3.7-1.1,5.7-1.1c2,0,3.9,0.4,5.7,1.1c1.8,0.8,3.3,1.8,4.6,3.1s2.4,2.9,3.1,4.6s1.1,3.7,1.1,5.7
			c0,2-0.4,3.9-1.1,5.7c-0.8,1.8-1.8,3.3-3.1,4.6s-2.9,2.4-4.6,3.1C21.4,31.7,19.5,32.1,17.5,32.1z M17.5,29.7
			c3.4,0,6.2-1.2,8.6-3.5c2.4-2.4,3.5-5.2,3.5-8.6c0-3.4-1.2-6.2-3.5-8.6c-2.4-2.4-5.2-3.5-8.6-3.5c-3.4,0-6.2,1.2-8.6,3.5
			c-2.4,2.4-3.5,5.2-3.5,8.6c0,3.4,1.2,6.2,3.5,8.6C11.3,28.5,14.1,29.7,17.5,29.7z"/>
	</g>
</g>
</svg>
